svg/church-center/paste.svg

<svg width="16" height="16" viewBox="0 0 16 16" fill="none" xmlns="http://www.w3.org/2000/svg">
<path d="M12.1729 9.9155H8.17393V8.52507H12.1729V9.9155ZM12.1729 10.7851H8.17393V12.1756H12.1729V10.7851ZM15.65 6.26499V14.6096C15.65 14.9783 15.5035 15.332 15.2427 15.5928C14.9819 15.8535 14.6282 16 14.2593 16H5.91352C5.5447 16 5.19099 15.8535 4.93019 15.5928C4.6694 15.332 4.52288 14.9783 4.52288 14.6096V12.1756H1.74061C1.37179 12.1756 1.01808 12.0291 0.757284 11.7683C0.496489 11.5076 0.349976 11.1539 0.349976 10.7851V2.44056C0.349975 2.0717 0.496457 1.71794 0.757223 1.45703C1.01799 1.19611 1.3717 1.0494 1.74061 1.04913H4.56587C4.6422 0.749142 4.81633 0.483133 5.06075 0.29314C5.30516 0.103146 5.60593 0 5.91552 0C6.22511 0 6.52588 0.103146 6.77029 0.29314C7.01471 0.483133 7.18884 0.749142 7.26517 1.04913H10.0904C10.4593 1.0494 10.8131 1.19611 11.0738 1.45703C11.3346 1.71794 11.4811 2.0717 11.4811 2.44056V4.87456H14.2633C14.6315 4.87562 14.9842 5.02258 15.2441 5.28322C15.504 5.54386 15.65 5.89692 15.65 6.26499ZM5.91352 4.87456H10.0864V2.44056H8.34788V3.13528H3.47916V2.44056H1.74061V10.7851H4.52288V6.26499C4.52288 5.89623 4.6694 5.54257 4.93019 5.28181C5.19099 5.02105 5.5447 4.87456 5.91352 4.87456V4.87456ZM14.2593 6.26499H5.91352V14.6096H14.2593V6.26499Z" fill="black"/>
</svg>

<svg id="Layer_1" data-name="Layer 1" xmlns="http://www.w3.org/2000/svg" viewBox="0 0 16 16"><title>paste</title><path d="M12.174,9.913h-4V8.522h4Zm0,.87h-4v1.391h4Zm3.478-4.522v8.348A1.391,1.391,0,0,1,14.261,16H5.913a1.391,1.391,0,0,1-1.391-1.391V12.174H1.739A1.391,1.391,0,0,1,.348,10.783V2.435A1.392,1.392,0,0,1,1.739,1.043H4.565a1.393,1.393,0,0,1,2.7,0h2.826a1.392,1.392,0,0,1,1.391,1.392V4.87h2.783A1.391,1.391,0,0,1,15.652,6.261ZM5.913,4.87h4.174V2.435H8.348V3.13H3.478V2.435H1.739v8.348H4.522V6.261A1.391,1.391,0,0,1,5.913,4.87Zm8.348,1.391H5.913v8.348h8.348Z"/></svg>
